material/.icons/material/chili-medium.svg

<svg xmlns="http://www.w3.org/2000/svg" viewBox="0 0 24 24"><path d="M15.75 9l1.2-.76c.63.34 1.05 1 1.05 1.76v11.75S10 20 10 11v-1c0-.73.39-1.37.97-1.72l1.46.72L14 8l1.75 1M12 2c1.53 0 2.8 1.15 3 2.64 1 .29 1.81 1.03 2.22 1.99l-1.47.87-1.75-1-1.57 1-1.67-.83c.39-.95 1.19-1.67 2.18-2.01A1.01 1.01 0 0012 4V2m-4 8c0 8 3.63 9.84 6 11.75 0 0-8-1.75-8-10.75v-1c0-.73.39-1.37.97-1.72l1.33.66c-.19.31-.3.67-.3 1.06m.43-2.5l-1.67-.83C7.15 5.72 7.95 5 8.94 4.66A1.01 1.01 0 008 4V2c.77 0 1.47.29 2 .76V4c.43 0 .8.28.94.66C9.95 5 9.15 5.72 8.43 7.5z"/></svg>

<?xml version="1.0" encoding="UTF-8"?><!DOCTYPE svg PUBLIC "-//W3C//DTD SVG 1.1//EN" "http://www.w3.org/Graphics/SVG/1.1/DTD/svg11.dtd"><svg xmlns="http://www.w3.org/2000/svg" xmlns:xlink="http://www.w3.org/1999/xlink" version="1.1" id="mdi-chili-medium" width="24" height="24" viewBox="0 0 24 24"><path d="M15.75,9L16.95,8.24C17.58,8.58 18,9.24 18,10V21.75C18,21.75 10,20 10,11V10C10,9.27 10.39,8.63 10.97,8.28L12.43,9L14,8L15.75,9M12,2C13.53,2 14.8,3.15 15,4.64C16,4.93 16.81,5.67 17.22,6.63L15.75,7.5L14,6.5L12.43,7.5L10.76,6.67C11.15,5.72 11.95,5 12.94,4.66C12.8,4.28 12.43,4 12,4V2M8,10C8,18 11.63,19.84 14,21.75C14,21.75 6,20 6,11V10C6,9.27 6.39,8.63 6.97,8.28L8.3,8.94C8.11,9.25 8,9.61 8,10M8.43,7.5L6.76,6.67C7.15,5.72 7.95,5 8.94,4.66C8.8,4.28 8.43,4 8,4V2C8.77,2 9.47,2.29 10,2.76V4C10.43,4 10.8,4.28 10.94,4.66C9.95,5 9.15,5.72 8.43,7.5Z" /></svg>
